X:1
T:我的中国心
T:我的中国心
L:1/8
M:4/4
K:Eb
V:1 treble nm="Piano" snm="Pno."
V:1
 G4 c4 | e2 dc G2 E2 | c8- | c8 | G4 g4 | f2 gf e2 d2 | G8- | G8 | C3 G FGED | C6 z2 | %10
 G c2 B GFEF | G6 GB | c3 d cBGF | E (E2 F) G4 | F3 G (DC) B,2 | C6 z2 | C3 E FCED | C8 | %18
 E C2 G EFED | C6 EF | G3 B GF(ED) | C C2 B, D4 | B,3 C (B,C)(DB,) | C6 z B, | E3 E B,2 z C | %25
 G3 G E2 GF | E2 B,2 B,2 (B,C/)D/ | E6 z C | G3 G E3 G | B3 B B4- | B2 Bc G3 F | E6 z2 | %32
 C3 G (FG)ED | C8 | G c2 B GFEF | G6 GB | c3 d cBGF | E (E2 F) G4 | F3 G (DC) B,2 | C4 (B,C)(DB,) | %40
 C6 z2 | e3 d d3 c | c3 G G4 | c3 A A2 G2 | F6 z2 | d3 c c3 B | B3 F F4 | z GEF G2 D2 | C6 z [EB] | %49
 E3 E B,2 z B, | G3 G E2 GF | E2 B,2 B,2 (B,C/)D/ | E6 z C | G3 G E3 G | B3 B B4 | B2 Bc G3 F | %56
 E6 z2 |: C3 E (FC)ED | C6 z2 | E C2 G EDED | C6 EF |1 G3 B GFED | C ((C2 B,)) D4 | %63
 B,3 C (((B,C)))(DB,) | C6 z2 :|2 G3 B GFEC | [B,G] (G2 [FA]) [EB]4 | %67
 [FG]3 [GB] ([B,F][CE]) [DF]2 | [CE]8- | [CE]6 z2 |] %70

